X:1
T:Title
%%score { ( 1 4 5 ) | ( 2 3 ) }
L:1/8
Q:1/4=100
M:4/4
K:F
V:1 treble nm="Grand Piano"
V:4 treble 
V:5 treble 
V:2 bass 
V:3 bass 
V:1
 [A,CF][CF] z2 [DFA][FA] z2 | [CEB][CEB] z2 [CFA][FA] z2 | z [CF][EG][FA] [GB]2 z2 | %3
w: Frank~M.~Davis * * *|||
 [CEc]3 [CEc] [CF=B]2 [CG_B]2 | [CFA]6[K:bass] D,2 |[M:11/16] z/ z/ z ccc3/2 | %6
w: |||
[M:3/8][K:treble] cdc |[M:4/4] A6 z2 | F6 z2 | B6 z2 | c6 z2 | A6 z2 | z CCC Cfe[FBd] | %13
w: |||||||
 .F2 z2 .B2 [Ec]2 |[M:5/8] F-F- F3 |[M:3/8] A,B,A, |[M:4/4] z BBB B[K:bass]G,A,G, | %17
w: ||||
 z[K:treble] AAA AA,[K:bass]G,F, | z[K:treble] ccc c[K:bass]F,E,D, | z[K:treble] ccc cC=B,_B, | %20
w: |||
 z ccc c[K:bass]A,G,F, | z[K:treble] BBB B[K:bass]F,E,D, | z[K:treble] AAA A[Ac][_A=B][G_B] | %23
w: |||
 A2 BB Afe[FBd] | [Ac]-[CA-c-][CAc][CAc] [Ed]2 [Ec]2 | F6 z2 |] %26
w: |||
V:2
 z A, z2 z D B,,2 | C,C, z C, z C D,2 | z A,[K:treble]CC C2 z2 | C,3 C, D,2 E,2 | F,2 F,F, E,2 z2 | %5
[M:11/16] z/ z/ z[K:treble] [G,E][A,F][B,G]3/2 |[M:3/8] z3 | %7
[M:4/4] z[K:bass] [F,C][F,C][F,C] .[F,C]2 z2 | z [F,A,][F,A,][F,A,] .[F,A,]2 z2 | %9
 z B,,B,,B,, B,,2 z2 | z [C,B,][C,B,][C,B,] .[C,B,]2 z2 | z [F,C][F,C][F,C] .[F,C]2 z2 | %12
 z [F,A,][F,A,][F,A,] [F,A,][K:treble]dc[K:bass]B,, | C,C,C,C, .[C,C]2 .[C,G,]2 | %14
[M:5/8] A,2 B, B,A, |[M:3/8] z3 |[M:4/4] z[K:treble] [CE][CE][CE] .[CE]2 z2 | %17
 z [CF][CF][CF] .[CF]2 z2 | z [CG][CG][CG] .[CG]2 z2 | z [G,E][G,E][A,E] .[B,G]2 z2 | %20
 z [CF][CF][CF] .[CF]2 z2 | z [B,F][B,F][B,F] .[B,F]2 z2 | %22
 z [CF][CF][CF] [CF][K:bass][C,C][D,C][E,C] | [CF]2 [DF][DF] [CF]dc[K:bass]B,, | %24
 C,C,C,C, [C,B,]2 [C,B,]2 | [F,A,]6 z2 |] %26
V:3
 F,4 D,2 z2 | z4 A,,2 z2 | C,6[K:treble] z2 | x8 | x8 |[M:11/16] x2[K:treble] x7/2 |[M:3/8] x3 | %7
[M:4/4] x[K:bass] x7 | x8 | x8 | x8 | x8 | x5[K:treble] x2[K:bass] x | x8 |[M:5/8] F,-F,- F,3 | %15
[M:3/8] x3 |[M:4/4] x[K:treble] x7 | x8 | x8 | x8 | x8 | x8 | x5[K:bass] x3 | F,6 z2[K:bass] | x8 | %25
 x8 |] %26
V:4
 x8 | x8 | x8 | x8 | x6[K:bass] x2 |[M:11/16] C,/-C,/-C,/-C,/-C,/-C,/-C,/-C,-<C, | %6
[M:3/8][K:treble] x3 |[M:4/4] z FFF FABA | z CCC CFGA | z [DF][DF][DF] FGAd | z EEE Ecdc | %11
 z FFF FABA | F6 z2 | [Ac]-[FA-c-][FAc][FAc] d-[B,Gd] z B, |[M:5/8] z2 D DC |[M:3/8] x3 | %16
[M:4/4] G,6[K:bass] z2 | F,6[K:treble][K:bass] z2 | E,6[K:treble][K:bass] z2 | C,6[K:treble] z2 | %20
 A,6[K:bass] z2 | D,6[K:treble][K:bass] z2 | C,6[K:treble] z2 | x8 | .F2 z2 z4 | x8 |] %26
V:5
 x8 | x8 | x8 | x8 | x6[K:bass] x2 |[M:11/16] x11/2 |[M:3/8][K:treble] x3 |[M:4/4] x8 | x8 | %9
 z4 D2 z2 | x8 | x8 | x8 | x8 |[M:5/8] x5 |[M:3/8] x3 |[M:4/4] x5[K:bass] x3 | %17
 x[K:treble] x5[K:bass] x2 | x[K:treble] x4[K:bass] x3 | x[K:treble] x7 | x5[K:bass] x3 | %21
 x[K:treble] x4[K:bass] x3 | x[K:treble] x7 | x8 | x8 | x8 |] %26

